svgs/light/square-phone-hangup.svg

<svg xmlns="http://www.w3.org/2000/svg" viewBox="0 0 448 512"><!--! Font Awesome Pro 6.3.0 by @fontawesome - https://fontawesome.com License - https://fontawesome.com/license (Commercial License) Copyright 2023 Fonticons, Inc. --><path d="M384 32H64C28.65 32 0 60.66 0 96v320c0 35.34 28.65 64 64 64h320c35.35 0 64-28.66 64-64V96C448 60.66 419.3 32 384 32zM416 416c0 17.64-14.36 32-32 32H64c-17.64 0-32-14.36-32-32V96c0-17.64 14.36-32 32-32h320c17.64 0 32 14.36 32 32V416zM65.23 225.7C52.89 238 50.73 256.1 59.97 271.8l24.1 38.53c9.535 15.21 28.61 21.44 45.33 14.87c.0332-.0117-.0234 0 0 0l48.4-19.36C192.1 299.5 202.4 283.8 200.8 267.6L199.7 257.1c16.03-3.039 32.43-3.039 48.45-.0117l-1.051 10.64c-1.578 16.61 7.746 31.94 23.24 38.15l48.26 19.31c16.73 6.629 35.75 .3105 45.32-14.89l23.1-38.49c9.303-14.78 7.182-33.74-5.182-46.11C295.2 138.1 152.8 138.1 65.23 225.7zM360.8 254.8l-24.03 38.55c-.1992 .332-.4316 .6309-.6973 .8945c-1.457 1.459-3.711 1.967-5.635 1.217l-48.18-19.28c-2.254-.9043-3.525-2.971-3.293-5.348l2.42-24.43c.752-7.645-4.033-14.75-11.4-16.93c-30.11-8.895-61.96-8.883-92.1 0C170.5 231.6 165.8 238.8 166.5 246.4l2.43 24.46c.2324 2.221-1.17 4.465-3.182 5.326L117.6 295.4C115.2 296.3 112.5 295.4 111.2 293.3L87.11 254.8C85.78 252.7 86.09 250.1 87.86 248.3c75.06-75.06 197.2-75.06 272.3 0C361.9 250 362.2 252.6 360.8 254.8z"/></svg>

<svg xmlns="http://www.w3.org/2000/svg" viewBox="0 0 448 512"><!-- Font Awesome Pro 6.0.0-alpha2 by @fontawesome - https://fontawesome.com License - https://fontawesome.com/license (Commercial License) --><path d="M384 32H64C28.654 32 0 60.656 0 96V416C0 451.344 28.654 480 64 480H384C419.346 480 448 451.344 448 416V96C448 60.656 419.346 32 384 32ZM416 416C416 433.645 401.645 448 384 448H64C46.355 448 32 433.645 32 416V96C32 78.355 46.355 64 64 64H384C401.645 64 416 78.355 416 96V416ZM65.232 225.662C52.891 238.004 50.727 256.963 59.973 271.758L84.07 310.283C93.605 325.498 112.631 331.75 129.348 325.178C129.381 325.166 129.424 325.121 129.447 325.121L177.795 305.787C192.998 299.533 202.422 283.789 200.775 267.604L199.738 257.062C215.77 254.023 232.164 254.023 248.186 257.051L247.135 267.691C245.557 284.297 254.881 299.633 270.371 305.842L318.631 325.154C335.357 331.783 354.385 325.465 363.951 310.262L387.949 271.768C397.252 256.984 395.131 238.025 382.768 225.662C295.219 138.113 152.781 138.113 65.232 225.662ZM360.824 254.764L336.795 293.312C336.596 293.645 336.363 293.943 336.098 294.207C334.641 295.666 332.387 296.174 330.463 295.424L282.281 276.143C280.027 275.238 278.756 273.172 278.988 270.795L281.408 246.367C282.16 238.723 277.375 231.617 270.006 229.441C239.898 220.547 208.047 220.559 177.906 229.441C170.504 231.629 165.764 238.756 166.504 246.367L168.934 270.828C169.166 273.049 167.764 275.293 165.752 276.154L117.602 295.4C115.227 296.318 112.531 295.434 111.205 293.312L87.109 254.787C85.783 252.666 86.092 250.059 87.859 248.289C162.924 173.227 285.076 173.227 360.141 248.289C361.887 250.035 362.174 252.621 360.824 254.764Z"/></svg>
